X: 34912
T: Rock On The Clyde, The
R: jig
M: 6/8
K: Dminor
|:A|FDE F2G|Add cAc|dcA ~G3|AFD GEC|
FDE F2G|Add cAc|dcA GFG|AFD D2:|
|:e|~f3 edc|ded cAG|~F3 GFG|AFD DFD|
CA,C DFB|Aca fdc|dcA GFG|AFD D2:|

